actions/24/table.svg

<svg xmlns="http://www.w3.org/2000/svg" viewBox="0 0 24 24" width="24" height="24">
  <defs id="defs3051">
    <style type="text/css" id="current-color-scheme">
      .ColorScheme-Text {color:#fcfcfc;}.ColorScheme-Highlight {color:#3daee9;}</style>
  </defs>
  <g transform="translate(1,1)">
    <path style="fill:currentColor;fill-opacity:1;stroke:none" d="M 4 4 L 4 7 L 4 9 L 9 9 L 9 7 L 9 4 L 7 4 L 4 4 z " class="ColorScheme-Highlight"/>
    <path style="fill:currentColor;fill-opacity:1;stroke:none" d="m 3,6 v 10 c 0,0 0,3 3,3 3,0 6,0 6,0 h 4 c 0,0 3,0 3,-3 0,-3 0,-4 0,-4 V 6 C 19,6 19,3 16,3 13,3 6,3 6,3 3,3 3,6 3,6 Z M 6,4 H 7 9 V 9 H 4 V 7 6 C 4,6 4,4 6,4 Z m 4,0 h 2 v 2 h -2 z m 3,0 h 2 v 2 h -2 z m 3,0 c 2,0 2,2 2,2 h -2 z m -6,3 h 2 v 2 h -2 z m 3,0 h 2 v 2 h -2 z m 3,0 h 2 V 9 H 16 Z M 4,10 h 2 v 2 H 4 Z m 3,0 h 2 v 2 H 7 Z m 3,0 h 2 v 2 h -2 z m 3,0 h 2 v 2 h -2 z m 3,0 h 2 v 2 H 16 Z M 4,13 h 2 v 2 H 4 Z m 3,0 h 2 v 2 H 7 Z m 3,0 h 2 v 2 h -2 z m 3,0 h 2 v 2 h -2 z m 3,0 h 2 v 2 H 16 Z M 4,16 h 2 v 2 C 4,18 4,16 4,16 Z m 3,0 h 2 v 2 H 7 Z m 3,0 h 2 v 2 h -2 z m 3,0 h 2 v 2 h -2 z m 3,0 h 2 c 0,2 -2,2 -2,2 z" class="ColorScheme-Text"/>
  </g>
</svg>

<svg xmlns="http://www.w3.org/2000/svg" viewBox="0 0 24 24" width="24" height="24">
  <defs id="defs3051">
    <style type="text/css" id="current-color-scheme">
      .ColorScheme-Text {
        color:#eff0f1;
      }
      .ColorScheme-Highlight {
        color:#3daee9;
      }
      </style>
  </defs>
  <g transform="translate(1,1)">
    <path style="fill:currentColor;fill-opacity:1;stroke:none" d="M 3 3 L 3 19 L 12 19 L 18 19 L 19 19 L 19 12 L 19 3 L 3 3 z M 4 4 L 6 4 L 7 4 L 9 4 L 9 9 L 4 9 L 4 7 L 4 6 L 4 4 z M 10 4 L 12 4 L 12 6 L 10 6 L 10 4 z M 13 4 L 15 4 L 15 6 L 13 6 L 13 4 z M 16 4 L 18 4 L 18 6 L 16 6 L 16 4 z M 10 7 L 12 7 L 12 9 L 10 9 L 10 7 z M 13 7 L 15 7 L 15 9 L 13 9 L 13 7 z M 16 7 L 18 7 L 18 9 L 16 9 L 16 7 z M 4 10 L 6 10 L 6 12 L 4 12 L 4 10 z M 7 10 L 9 10 L 9 12 L 7 12 L 7 10 z M 10 10 L 12 10 L 12 12 L 10 12 L 10 10 z M 13 10 L 15 10 L 15 12 L 13 12 L 13 10 z M 16 10 L 18 10 L 18 12 L 16 12 L 16 10 z M 4 13 L 6 13 L 6 15 L 4 15 L 4 13 z M 7 13 L 9 13 L 9 15 L 7 15 L 7 13 z M 10 13 L 12 13 L 12 15 L 10 15 L 10 13 z M 13 13 L 15 13 L 15 15 L 13 15 L 13 13 z M 16 13 L 18 13 L 18 15 L 16 15 L 16 13 z M 4 16 L 6 16 L 6 18 L 4 18 L 4 16 z M 7 16 L 9 16 L 9 18 L 7 18 L 7 16 z M 10 16 L 12 16 L 12 18 L 10 18 L 10 16 z M 13 16 L 15 16 L 15 18 L 13 18 L 13 16 z M 16 16 L 18 16 L 18 18 L 16 18 L 16 16 z " class="ColorScheme-Text"/>
    <path style="fill:currentColor;fill-opacity:1;stroke:none" d="M 4 4 L 4 7 L 4 9 L 9 9 L 9 7 L 9 4 L 7 4 L 4 4 z " class="ColorScheme-Highlight"/>
  </g>
</svg>
